package/thingino-webui/files/var/www/a/upload.svg

<svg xmlns="http://www.w3.org/2000/svg" width="800px" height="800px" viewBox="0 0 24 24" fill="none" stroke="currentColor" stroke-width="1.5" stroke-linecap="round"><path d="M17 9.00195C19.175 9.01406 20.3529 9.11051 21.1213 9.8789C22 10.7576 22 12.1718 22 15.0002V16.0002C22 18.8286 22 20.2429 21.1213 21.1215C20.2426 22.0002 18.8284 22.0002 16 22.0002H8C5.17157 22.0002 3.75736 22.0002 2.87868 21.1215C2 20.2429 2 18.8286 2 16.0002L2 15.0002C2 12.1718 2 10.7576 2.87868 9.87889C3.64706 9.11051 4.82497 9.01406 7 9.00195"/><path d="M12 15L12 2M12 2L15 5.5M12 2L9 5.5"/></svg>

<svg xmlns="http://www.w3.org/2000/svg" width="800" height="800" fill="none" stroke="currentColor" stroke-linecap="round" stroke-width="1.5" viewBox="0 0 24 24"><path d="M17 9.002c2.175.012 3.353.109 4.121.877C22 10.758 22 12.172 22 15v1c0 2.829 0 4.243-.879 5.122C20.243 22 18.828 22 16 22H8c-2.828 0-4.243 0-5.121-.878C2 20.242 2 18.829 2 16v-1c0-2.828 0-4.242.879-5.121.768-.768 1.946-.865 4.121-.877M12 15V2m0 0 3 3.5M12 2 9 5.5"/></svg>
